X:021 
T:Brandy With Breakfast* (reel) 
S:Grier MS
F:file ID: cre.4/021brandy
B:CRE4.154: gan ainm
L:1/8
Q:180
M:4/4
R:reel
K:D % source key F
Fd d2 fd d2|BdAF GEEG|Fd d2 fd d2|BdAG FD D2:|
A2 DA FDAD|GBAF GEEF|A2 DA FABc|dABG FAdB|
A2 DA FDAD|GBAF GEEG|Fd d2 fdec|dBAG FD D2 ||

%%%


